packages/foundations/assets/icons/functional/images/audio & video/stop_32.svg

<svg width="32" height="32" viewBox="0 0 32 32" fill="none" xmlns="http://www.w3.org/2000/svg">
<g clip-path="url(#clip0_2202_474)">
<path fill-rule="evenodd" clip-rule="evenodd" d="M21 8C21.7956 8 22.5587 8.31607 23.1213 8.87868C23.6839 9.44129 24 10.2044 24 11V21C24 21.7956 23.6839 22.5587 23.1213 23.1213C22.5587 23.6839 21.7956 24 21 24H11C10.2044 24 9.44129 23.6839 8.87868 23.1213C8.31607 22.5587 8 21.7956 8 21V11C8 10.2044 8.31607 9.44129 8.87868 8.87868C9.44129 8.31607 10.2044 8 11 8H21ZM21 10H11C10.437 10 10 10.438 10 11V21C10 21.563 10.438 22 11 22H21C21.563 22 22 21.563 22 21V11C22 10.438 21.562 10 21 10Z" fill="#1A1C1F"/>
</g>
<defs>
<clipPath id="clip0_2202_474">
<rect width="32" height="32" fill="white"/>
</clipPath>
</defs>
</svg>

<svg xmlns="http://www.w3.org/2000/svg" width="32" height="32" fill="none"><g clip-path="url(#a)"><path fill="#1A1C1F" fill-rule="evenodd" d="M21 8a3 3 0 0 1 3 3v10a3 3 0 0 1-3 3H11a3 3 0 0 1-3-3V11a3 3 0 0 1 3-3zm0 2H11c-.563 0-1 .438-1 1v10c0 .563.438 1 1 1h10c.563 0 1-.437 1-1V11c0-.562-.438-1-1-1" clip-rule="evenodd"/></g><defs><clipPath id="a"><path fill="#fff" d="M0 0h32v32H0z"/></clipPath></defs></svg>
